kora/panel/24/fcitx-rime-panel.svg

<svg xmlns="http://www.w3.org/2000/svg" width="24" height="24" version="1.1">
 <defs>
  <style id="current-color-scheme" type="text/css">
   .ColorScheme-Text { color:#dfdfdf; } .ColorScheme-Highlight { color:#4285f4; } .ColorScheme-NeutralText { color:#ff9800; } .ColorScheme-PositiveText { color:#4caf50; } .ColorScheme-NegativeText { color:#f44336; }
  </style>
 </defs>
 <g transform="matrix(1,0,0,1,4,4)">
  <path class="ColorScheme-Text" d="M 2,0 C 0.892,0 0,0.892 0,2 V 14 C 0,15.108 0.892,16 2,16 H 14 C 15.108,16 16,15.108 16,14 V 2 C 16,0.892 15.108,0 14,0 Z M 7,2 H 8 V 8.9824 C 9.811,8.9008 10.721,8.3758 11.262,7.4902 11.852,6.525 12,4.9792 12,3 H 13 C 13,5.0208 12.898,6.725 12.113,8.0098 11.387,9.1987 10.05,9.8837 8,9.9805 V 13 H 13 V 14 H 2 V 13 H 7 V 9.9805 C 4.9496,9.8837 3.6133,9.1987 2.8867,8.0098 2.1016,6.725 2,5.0208 2,3 H 3 C 3,4.9792 3.1484,6.525 3.7383,7.4902 4.2795,8.3758 5.189,8.9008 7,8.9824 Z" style="fill:currentColor"/>
 </g>
</svg>

<svg xmlns="http://www.w3.org/2000/svg" width="100%" height="100%" viewBox="-4 -4 24 24">
 <defs>
  <style id="current-color-scheme" type="text/css">
   .ColorScheme-Text { color:#dfdfdf; } .ColorScheme-Highlight { color:#4285f4; } .ColorScheme-NeutralText { color:#ff9800; } .ColorScheme-PositiveText { color:#4caf50; } .ColorScheme-NegativeText { color:#f44336; }
  </style>
 </defs>
 <path style="fill:currentColor" class="ColorScheme-Text" d="m7 2h1v6.982c1.811-.081 2.721-.606 3.262-1.492.59-.965.738-2.511.738-4.49h1c0 2.021-.102 3.725-.887 5.01-.726 1.189-2.063 1.874-4.113 1.971v3.019h5v1h-11v-1h5v-3.019c-2.05-.097-3.387-.782-4.113-1.971-.785-1.285-.887-2.989-.887-5.01h1c0 1.979.148 3.525.738 4.49.542.886 1.451 1.411 3.262 1.492z" fill="#dfdfdf"/>
</svg>
